outputs/icons/navigation/last_page_round.svg

<svg xmlns="http://www.w3.org/2000/svg" width="1200" height="1200" fill="none"><path fill="#000" d="M314.5 405.5 509 600 314.5 794.5c-19.5 19.5-19.5 51 0 70.5s51 19.5 70.5 0l229.5-229.5c19.5-19.5 19.5-51 0-70.5L385 335c-19.5-19.5-51-19.5-70.5 0-19 19.5-19 51.5 0 70.5M850 300c27.5 0 50 22.5 50 50v500c0 27.5-22.5 50-50 50s-50-22.5-50-50V350c0-27.5 22.5-50 50-50"/></svg>

<svg width="1200" height="1200" viewBox="0 0 1200 1200" fill="none" xmlns="http://www.w3.org/2000/svg"><path d="M314.5 405.5L509 600L314.5 794.5C295 814 295 845.5 314.5 865C334 884.5 365.5 884.5 385 865L614.5 635.5C634 616 634 584.5 614.5 565L385 335C365.5 315.5 334 315.5 314.5 335C295.5 354.5 295.5 386.5 314.5 405.5ZM850 300C877.5 300 900 322.5 900 350V850C900 877.5 877.5 900 850 900C822.5 900 800 877.5 800 850V350C800 322.5 822.5 300 850 300Z" fill="black"/></svg>
